X:1
T:Reel sans nom
O:Qubec
S:Dominique Renaudin <domren:free.fr> QueTrad 2002-11-12
R:reel
M:4/4
L:1/8
K:D
de | fd ec dA FA | GA BG E2 ed | c2 B2 Ac ec |
de fd A2 de | fd ec dA FA | GA BG E2 ed | c2 B2 Ac ec |
df ec d2 :: AG | FA DA FA DF | G2 FG BB AG |
F2 DA FF DF | E2 CE GE CE | FA DA FA DF | G2 FG BB AG |
Fc ef ge ce | df ec d2 :|
